icons/Logos/wechat-pay-line.svg

<svg viewBox="0 0 24 24" xmlns="http://www.w3.org/2000/svg"><path d="M19.1458 8.99349L9.34705 14.6009L9.27753 14.6468C9.18483 14.6927 9.09213 14.7157 8.97625 14.7157C8.72133 14.7157 8.51275 14.5779 8.39688 14.3712L8.35053 14.2793L6.51971 10.3292C6.49653 10.2833 6.49653 10.2373 6.49653 10.1914C6.49653 10.0077 6.63558 9.86988 6.82098 9.86988C6.8905 9.86988 6.96003 9.89285 7.02955 9.93878L9.18483 11.4545C9.34705 11.5464 9.53245 11.6153 9.74103 11.6153C9.8569 11.6153 9.97278 11.5923 10.0887 11.5464L18.3634 7.8977C16.9347 6.27337 14.6348 5.2002 12.0006 5.2002C7.57986 5.2002 4.10059 8.2226 4.10059 11.8002C4.10059 13.1658 4.60024 14.4731 5.53227 15.5812C5.58056 15.6386 5.65277 15.718 5.74666 15.8157C6.54199 16.644 6.94301 17.7741 6.84765 18.9184L6.82289 19.2156L7.53841 18.7792C8.34812 18.2853 9.30697 18.0952 10.2438 18.2428C10.4553 18.2762 10.6292 18.3018 10.7634 18.3195C11.1696 18.3731 11.5828 18.4002 12.0006 18.4002C16.4213 18.4002 19.9006 15.3778 19.9006 11.8002C19.9006 10.8038 19.6307 9.85046 19.1458 8.99349ZM6.19286 21.9425C6.00989 22.0569 5.79484 22.109 5.57981 22.0911C5.02944 22.0452 4.62045 21.5619 4.66631 21.0115L4.85456 18.7523C4.90224 18.1802 4.70173 17.6151 4.30407 17.201C4.1819 17.0738 4.08111 16.963 4.0017 16.8685C2.80622 15.4472 2.10059 13.6953 2.10059 11.8002C2.10059 7.05055 6.53297 3.2002 12.0006 3.2002C17.4682 3.2002 21.9006 7.05055 21.9006 11.8002C21.9006 16.5498 17.4682 20.4002 12.0006 20.4002C11.4911 20.4002 10.9906 20.3668 10.5018 20.3023C10.3491 20.2821 10.1593 20.2542 9.93256 20.2185C9.46412 20.1447 8.9847 20.2397 8.57985 20.4866L6.19286 21.9425Z"/></svg>

<svg xmlns="http://www.w3.org/2000/svg" viewBox="0 0 24 24">
    <g>
        <path fill="none" d="M0 0h24v24H0z"/>
        <path d="M19.145 8.993l-9.799 5.608-.07.046a.646.646 0 0 1-.3.068.655.655 0 0 1-.58-.344l-.046-.092-1.83-3.95c-.024-.046-.024-.092-.024-.138 0-.184.139-.321.324-.321.07 0 .14.023.209.069l2.155 1.515c.162.092.348.161.556.161a.937.937 0 0 0 .348-.069l8.275-3.648C16.934 6.273 14.634 5.2 12 5.2c-4.42 0-7.9 3.022-7.9 6.6 0 1.366.5 2.673 1.432 3.781.048.057.12.137.214.235a4 4 0 0 1 1.101 3.102l-.025.297.716-.436a4 4 0 0 1 2.705-.536c.212.033.386.059.52.076.406.054.82.081 1.237.081 4.42 0 7.9-3.022 7.9-6.6 0-.996-.27-1.95-.755-2.807zM6.192 21.943a1 1 0 0 1-1.526-.932l.188-2.259a2 2 0 0 0-.55-1.551A6.993 6.993 0 0 1 4 16.868C2.806 15.447 2.1 13.695 2.1 11.8c0-4.75 4.432-8.6 9.9-8.6s9.9 3.85 9.9 8.6-4.432 8.6-9.9 8.6c-.51 0-1.01-.033-1.499-.098a23.61 23.61 0 0 1-.569-.084 2 2 0 0 0-1.353.268l-2.387 1.456z"/>
    </g>
</svg>
